!!!OTL: Wallfahrtsgesang
!!!ARE: Europa, Mitteleuropa, Deutschland
!!!SCT: A0573
!!!YEM: Copyright 1995, estate of Helmut Schaffrath.
**kern
*ICvox
*Ivox
!! Mixed meters:  4/2; 6/2
*M6/2
*k[b-e-]
*g:
{2g
=1
2g
2g
2b-
2b-
=2
1g
2fn}
{2fn
=3
2b-
2b-
2cc
2cc
=4
1dd
2r}
{2cc
=5
2dd
4dd
4dd
2dd
2cc
=6
1dd
2b-}
{2cc
=7
2dd
2dd
2cc
2cc
=8
1b-
2r}
{2b-
=9
2cc
2b-
2cc
2cc
=10
1dd
2dd}
{2b-
=11
2.cc
4cc
2b-
2b-
=12
1g
1fn
2r}
{2fn
=13
*M4/2
2cc
2b-
2cc
2cc
=14
1dd
2dd}
{2b-
=15
2cc
2b-
2a
2g
=16
1cc
1dd}
=17
{4b-
4b-
2b-
1a
=18
1.g}
==
!!!AGN: Romanze, Ballade, Lied, religioeses Lied
!! Muenchner Gsgb 1586 fol. 70b
!!!ONB: ESAC (Essen Associative Code) Database: ALTDEU
!!!AMT: irregular
!!!AIN: vox
!!!EED: Helmut Schaffrath
!!!EEV: 1.0
*-
